!!!COM: Palestrina, Giovanni Perluigi da
!!!OPR: Missa Dum complerentur
!!!OTL: Agnus I
**kern	**kern	**kern	**kern	**kern	**kern
*Ibass	*Itenor	*Itenor	*Icalto	*Icalto	*Icant
!Bassus	!Tenor 2	!Tenor 1	!Altus 2	!Altus 1	!Cantus
*clefF4	*clefGv2	*clefGv2	*clefG2	*clefG2	*clefG2
*k[b-]	*k[b-]	*k[b-]	*k[b-]	*k[b-]	*k[b-]
*F:ion	*F:ion	*F:ion	*F:ion	*F:ion	*F:ion
*M4/2	*M4/2	*M4/2	*M4/2	*M4/2	*M4/2
=1	=1	=1	=1	=1	=1
0r	1g	1c	0r	0r	0cc
.	[1a	[1f	.	.	.
=2	=2	=2	=2	=2	=2
0r	2a]	2f]	0r	1c	0cc
.	2g	2e	.	.	.
.	2a	2f	.	2f	.
.	[2g	2e	.	2g	.
=3	=3	=3	=3	=3	=3
0r	4g]	2d	0r	2a	1dd
.	4f	.	.	.	.
.	1f	2B-	.	2b-	.
.	.	1c	.	2.g	1cc
.	2e	.	.	.	.
.	.	.	.	4a	.
=4	=4	=4	=4	=4	=4
0r	2.d	1.B-	0r	2b-	2.ff
.	.	.	.	4B-	.
.	4c	.	.	4c	4ee
.	2B-	.	.	4d	2dd
.	.	.	.	4e	.
.	2A	2c	.	2f	2cc
=5	=5	=5	=5	=5	=5
0r	2G	2d	0r	2g	2b-
.	2F	1f	.	2.c	2a
.	1c	.	.	.	2g
.	.	.	.	4d	.
.	.	2e	.	4e	[2cc
.	.	.	.	4f	.
=6	=6	=6	=6	=6	=6
1G	2r	1d	0g	2g	2cc]
.	2.g	.	.	2d	2b
[1c	.	4c	.	[1e	1cc
.	4f	4d	.	.	.
.	4e	4e	.	.	.
.	4d	4f	.	.	.
=7	=7	=7	=7	=7	=7
2c]	2c	2g	0g	2e]	0r
2B	2d	2G	.	2d	.
2c	2e	1r	.	2c	.
2B-	[2d	.	.	2d	.
=8	=8	=8	=8	=8	=8
2A	4d]	0r	1a	2e	1r
.	4c	.	.	.	.
2F	1c	.	.	2f	.
1G	.	.	1g	2.d	2r
.	2B-	.	.	.	2g
.	.	.	.	4e	.
=9	=9	=9	=9	=9	=9
1.F	2.A	2r	2.cc	2f	2a
.	.	1f	.	2.c	4f
.	4B-	.	4b-	.	4g
.	1c	.	2a	.	4a
.	.	.	.	4d	4b-
2C	.	2e	2g	2e	2cc
=10	=10	=10	=10	=10	=10
2D	0r	2d	2f	2f	4b-
.	.	.	.	.	4a
2E	.	1c	2e	2g	2cc
2F	.	.	1d	2a	1dd
2G	.	2B	.	2g	.
=11	=11	=11	=11	=11	=11
1C	2r	2c	2c	1g	2ee
.	2g	2c	2cc	.	2ee
1r	1a	1F	1cc	1r	1ff
=12	=12	=12	=12	=12	=12
0r	1g	1c	1cc	0r	1ee
.	2e	2c	2g	.	2cc
.	[2f	[2B-	[2b-	.	[2dd
=13	=13	=13	=13	=13	=13
1r	2f]	4B-]	2b-]	0r	2dd]
.	.	4B-	.	.	.
.	1e	2c	2.a	.	1cc
2r	.	1G	.	.	.
.	.	.	4g	.	.
2G	2d	.	[2g	.	2b
=14	=14	=14	=14	=14	=14
1A	4d	2r	2g]	1r	1cc
.	4c	.	.	.	.
.	1c	2c	2f	.	.
1G	.	1d	1g	2r	2r
.	2B	.	.	[2g	2dd
=15	=15	=15	=15	=15	=15
2E	4c	1c	0r	2g]	2ee
.	4B-	.	.	.	.
1F	4A	.	.	1a	2cc
.	4G	.	.	.	.
.	2F	2A	.	.	2dd
2E	2G	[2c	.	2g	2ee
=16	=16	=16	=16	=16	=16
1D	2A	2c]	1r	2f	1ff
.	2F	2B	.	1f	.
1C	1G	1c	1g	.	1r
.	.	.	.	2e	.
=17	=17	=17	=17	=17	=17
0r	2F	1c	1a	1f	1cc
.	2A	.	.	.	.
.	1B-	1r	2f	2.d	1dd
.	.	.	[2b-	.	.
.	.	.	.	4e	.
=18	=18	=18	=18	=18	=18
0r	1F	0r	4b-]	2f	1cc
.	.	.	4a	.	.
.	.	.	2a	2c	.
.	2r	.	1f	1d	2a
.	2B-	.	.	.	[2b-
=19	=19	=19	=19	=19	=19
0r	2G	0r	2g	1r	2b-]
.	2A	.	1f	.	2a
.	2B-	.	.	2r	1g
.	[2c	.	2e	2g	.
=20	=20	=20	=20	=20	=20
1F	2c]	1c	[0f	1a	2f
.	2A	.	.	.	2cc
1BB-	2B-	1d	.	2f	1b-
.	[2F	.	.	[2b-	.
=21	=21	=21	=21	=21	=21
1.F	2F]	1c	1f]	2b-]	1.cc
.	2f	.	.	1a	.
.	2f	2A	1r	.	.
2G	2d	[2B-	.	[2g	2b-
=22	=22	=22	=22	=22	=22
2E-	4e-	2B-]	0r	2g]	2g
.	4d	.	.	.	.
2F	4c	2A	.	1f	2a
.	4B-	.	.	.	.
1C	1c	1G	.	.	1cc
.	.	.	.	2e	.
=23	=23	=23	=23	=23	=23
1F	1A	1F	2r	1f	1cc
.	.	.	2.a	.	.
1r	[1d	1r	.	2r	[1ff
.	.	.	4g	.	.
.	.	.	4f	[2a	.
.	.	.	4e	.	.
=24	=24	=24	=24	=24	=24
0r	2d]	0r	2d	2a]	2ff]
.	2c	.	2e	2a	2ee
.	2B-	.	2f	2d	2dd
.	2A	.	[2a	[2f	2cc
=25	=25	=25	=25	=25	=25
1r	1B-	1r	2a]	2f]	1dd
.	.	.	2g	4e	.
.	.	.	.	4d	.
2r	1A	2r	2a	2e	[1cc
[2F	.	2c	[2a	[2f	.
=26	=26	=26	=26	=26	=26
2F]	2.c	2F	2a]	2f]	1cc]
2E	.	2G	2g	2c	.
.	4c	.	.	.	.
2D	2F	2A	2f	1r	1r
2C	2A	[2c	2e	.	.
=27	=27	=27	=27	=27	=27
1D	2A	2c]	1f	1r	0r
.	4G	2B	.	.	.
.	4F	.	.	.	.
1C	1G	1c	1e	2r	.
.	.	.	.	[2cc	.
=28	=28	=28	=28	=28	=28
0r	1F	2r	1.a	2cc]	1.ff
.	.	1f	.	2f	.
.	1r	.	.	2a	.
.	.	2c	2g	2cc	2ee
=29	=29	=29	=29	=29	=29
0r	2r	2d	2b-	2.f	2dd
.	1f	2f	2a	.	2cc
.	.	.	.	4e	.
.	.	1B-	2.b-	2d	1dd
.	2d	.	.	[2g	.
.	.	.	4a	.	.
=30	=30	=30	=30	=30	=30
0r	2e	0c	2g	2g]	0cc
.	2f	.	2a	1f	.
.	1g	.	2g	.	.
.	.	.	2c	2e	.
=31	=31	=31	=31	=31	=31
1.B-	1f	0r	2r	2f	1.dd
.	.	.	1f	1b-	.
.	1r	.	.	.	.
2F	.	.	2f	2a	2cc
=32	=32	=32	=32	=32	=32
2G	0r	0r	2d	2g	2b-
2B-	.	.	2d	2f	2b-
1E-	.	.	1e-	1g	1b-
=33	=33	=33	=33	=33	=33
1F	2r	2r	1c	2f	2a
.	1f	1a	.	1cc	1ff
1r	.	.	1r	.	.
.	2c	2g	.	2cc	2ee
=34	=34	=34	=34	=34	=34
0r	2d	1.f	0r	2a	2dd
.	2f	.	.	2a	2cc
.	1B-	.	.	2.b-	1dd
.	.	2g	.	.	.
.	.	.	.	4a	.
=35	=35	=35	=35	=35	=35
0r	0c	2e	2r	2g	[0cc
.	.	1f	1cc	2a	.
.	.	.	.	1g	.
.	.	2e	2g	.	.
=36	=36	=36	=36	=36	=36
1.F	2r	2f	1a	2.f	1cc]
.	1f	1c	.	.	.
.	.	.	.	4g	.
.	.	.	1cc	4a	1r
.	.	.	.	4b-	.
2C	2e	2c	.	[2cc	.
=37	=37	=37	=37	=37	=37
1D	1d	2A	[0f	2cc]	1.ff
.	.	1F	.	1b-	.
1F	1c	.	.	.	.
.	.	[2f	.	2a	2cc
=38	=38	=38	=38	=38	=38
0BB-	0B-	4f]	0f]	2.b-	2dd
.	.	4e	.	.	.
.	.	4d	.	.	2ff
.	.	4c	.	8a	.
.	.	.	.	8g	.
.	.	1d	.	2.f	1b-
.	.	.	.	4g	.
=39	=39	=39	=39	=39	=39
0F	0A	0c	0f	0a	0cc
==	==	==	==	==	==
*-	*-	*-	*-	*-	*-
!!!CDT: 1525/^1526/-1594/2/2
!!!OCY: Italia
!!!AGN: Mass (Parody)
!!!AST: renaissance, vocal
!!!ASW: Motet 1569 (Palestrina)
!!!PWK: Masses, Book 8
!!!RNB: Cadence finals: C
!!!YOR: Le Opere Complete, v. 24, p. 117
!!!YOO: Rome, Italy: Fratelli Scalera
!!!END: 1992//
!!!EED: John Miller
!!!YEC: Copyright 2000, John Miller
!!!YEN: United States of America
!!!YEM: Rights to all derivative electronic formats reserved.
!!!YEM: Refer to licensing agreement for further details.
!!!YEM: This file must be accompanied by the licensing agreement.
!!!YEM: A copy of the licensing agreement may be found at http://www.music-cog.ohio-state.edu/HumdrumDatabases/Palestrina/license.txt
!!!EMD: converted to Humdrum by Bret Aarden
